public/images/equipe.svg

<svg width="132" height="75" viewBox="0 0 132 75" fill="none" xmlns="http://www.w3.org/2000/svg">
<path d="M24 0C20.0218 0 16.2064 1.58035 13.3934 4.3934C10.5804 7.20644 9 11.0218 9 15C9 18.9782 10.5804 22.7936 13.3934 25.6066C16.2064 28.4196 20.0218 30 24 30C27.9782 30 31.7936 28.4196 34.6066 25.6066C37.4196 22.7936 39 18.9782 39 15C39 11.0218 37.4196 7.20644 34.6066 4.3934C31.7936 1.58035 27.9782 0 24 0ZM66 0C63.6362 -4.98132e-08 61.2956 0.465582 59.1117 1.37017C56.9278 2.27475 54.9435 3.60062 53.2721 5.27208C51.6006 6.94353 50.2748 8.92784 49.3702 11.1117C48.4656 13.2956 48 15.6362 48 18C48 20.3638 48.4656 22.7044 49.3702 24.8883C50.2748 27.0722 51.6006 29.0565 53.2721 30.7279C54.9435 32.3994 56.9278 33.7253 59.1117 34.6298C61.2956 35.5344 63.6362 36 66 36C68.3638 36 70.7044 35.5344 72.8883 34.6298C75.0722 33.7253 77.0565 32.3994 78.7279 30.7279C80.3994 29.0565 81.7253 27.0722 82.6298 24.8883C83.5344 22.7044 84 20.3638 84 18C84 15.6362 83.5344 13.2956 82.6298 11.1117C81.7253 8.92784 80.3994 6.94353 78.7279 5.27208C77.0565 3.60062 75.0722 2.27475 72.8883 1.37017C70.7044 0.465582 68.3638 -4.98132e-08 66 0ZM43.44 40.17C42.12 39.42 40.59 39 39 39H9C4.05 39 0 43.05 0 48V49.8C0 58.89 10.53 66 24 66C27.78 66 31.35 65.43 34.5 64.41C33.51 62.1 33 59.61 33 57V55.5C33 48.54 37.35 42.57 43.44 40.17ZM108 0C104.022 0 100.206 1.58035 97.3934 4.3934C94.5804 7.20644 93 11.0218 93 15C93 18.9782 94.5804 22.7936 97.3934 25.6066C100.206 28.4196 104.022 30 108 30C111.978 30 115.794 28.4196 118.607 25.6066C121.42 22.7936 123 18.9782 123 15C123 11.0218 121.42 7.20644 118.607 4.3934C115.794 1.58035 111.978 0 108 0ZM123 39H93C91.41 39 89.88 39.42 88.56 40.17C94.65 42.57 99 48.54 99 55.5V57C99 59.61 98.49 62.1 97.5 64.41C100.65 65.43 104.22 66 108 66C121.47 66 132 58.89 132 49.8V48C132 43.05 127.95 39 123 39ZM66 75C50.859 75 39 67.092 39 57V55.5C39 49.71 43.71 45 49.5 45H82.5C88.29 45 93 49.71 93 55.5V57C93 67.092 81.141 75 66 75Z" fill="white"/>
</svg>

<svg xmlns="http://www.w3.org/2000/svg" fill="none" viewBox="0 0 132 75">
  <g clip-path="url(#a)">
    <path fill="#FFC420" d="M24 0a15 15 0 1 0 0 30 15 15 0 0 0 0-30Zm42 0a18 18 0 1 0 0 36 18 18 0 0 0 0-36ZM43.4 40.2A9 9 0 0 0 39 39H9c-5 0-9 4-9 9v1.8C0 58.8 10.5 66 24 66c3.8 0 7.4-.6 10.5-1.6-1-2.3-1.5-4.8-1.5-7.4v-1.5c0-7 4.4-13 10.4-15.3ZM108 0a15 15 0 1 0 0 30 15 15 0 0 0 0-30Zm15 39H93a9 9 0 0 0-4.4 1.2c6 2.4 10.4 8.3 10.4 15.3V57c0 2.6-.5 5.1-1.5 7.4 3.2 1 6.7 1.6 10.5 1.6 13.5 0 24-7.1 24-16.2V48c0-5-4-9-9-9ZM66 75c-15.1 0-27-8-27-18v-1.5C39 49.7 43.7 45 49.5 45h33C88.3 45 93 49.7 93 55.5V57c0 10-11.9 18-27 18Z"/>
  </g>
  <defs>
    <clipPath id="a">
      <path fill="#fff" d="M0 0h132v75H0z"/>
    </clipPath>
  </defs>
</svg>
